build/flags/CEU.svg

<svg xmlns="http://www.w3.org/2000/svg" fill="none" viewBox="0 0 28 28" focusable="false"><defs><filter id="CEU_svg__a"><feColorMatrix values="0 0 0 0 1 0 0 0 0 1 0 0 0 0 1 0 0 0 1 0"/></filter></defs><mask id="CEU_svg__b" width="28" height="20" x="0" y="4" maskUnits="userSpaceOnUse"><g filter="url(#CEU_svg__a)"><rect width="28" height="20" y="4" fill="#FFF" rx="3"/><rect width="28" height="20" y="4" stroke="#969696" stroke-opacity="0" stroke-width="0" rx="3"/></g></mask><path fill="none" d="M0 0H28V28H0z"/><rect width="28" height="20" y="4" fill="#FFF" rx="3"/><rect width="28" height="20" y="4" rx="3"/><g mask="url(#CEU_svg__b)"><path fill="#19BFBF" d="M0 4H28V24H0z"/><path d="M0 4H28V24H0z"/><path fill="#FFF" fill-rule="evenodd" d="M16.0556 20.7224L17.0976 21.7644C17.2278 21.8946 17.4389 21.8946 17.569 21.7644L18.6284 20.705C18.6537 20.6797 18.6748 20.6504 18.6908 20.6184L19.2716 19.4569C19.3111 19.3778 19.3804 19.3177 19.4643 19.2898L21.1054 18.7427C21.2415 18.6974 21.3333 18.57 21.3333 18.4265L21.3333 16.7677C21.3333 16.7019 21.3528 16.6375 21.3893 16.5828L22.4572 14.9809C22.5684 14.8141 22.5083 14.5875 22.3289 14.4979L21.3333 14.0001L19.5452 12.808C19.4201 12.7246 19.3663 12.5678 19.4138 12.4252L19.9348 10.8622C19.9748 10.7424 19.9436 10.6104 19.8543 10.5211L19.431 10.0977C19.3684 10.0352 19.3333 9.95042 19.3333 9.86201L19.3333 8.07877C19.3333 8.02702 19.3213 7.97598 19.2981 7.9297L18.7588 6.85101C18.7023 6.73808 18.5869 6.66675 18.4606 6.66675L17.3874 6.66675C17.3516 6.66675 17.316 6.67252 17.282 6.68385L15.408 7.30853C15.3589 7.3249 15.3143 7.35246 15.2777 7.38906L13.3333 9.33341L12.0976 10.5691C12.0351 10.6316 12 10.7164 12 10.8048L12 11.862C12 11.9504 12.0351 12.0352 12.0976 12.0977L12.4968 12.4969C12.5982 12.5983 12.7532 12.6235 12.8815 12.5593L13.5252 12.2375C13.7434 12.1284 14 12.287 14 12.5309C14 12.6179 14.0346 12.7013 14.0961 12.7628L14.569 13.2358C14.6315 13.2983 14.7163 13.3334 14.8047 13.3334L15.0931 13.3334C15.2365 13.3334 15.3639 13.2416 15.4093 13.1055L15.9829 11.3847C15.9942 11.3507 16 11.3151 16 11.2793L16 10.1382C16 10.0497 16.0351 9.96496 16.0976 9.90245L17.0976 8.90245C17.2278 8.77228 17.4389 8.77228 17.569 8.90245L17.8301 9.16353C17.9316 9.26498 17.9567 9.41997 17.8925 9.5483L17.3685 10.5964C17.3454 10.6427 17.3333 10.6937 17.3333 10.7454L17.3333 11.6667C17.3333 11.8508 17.4826 12.0001 17.6667 12.0001L18.3333 12.0001C18.5174 12.0001 18.6667 12.1493 18.6667 12.3334C18.6667 12.5175 18.5174 12.6667 18.3333 12.6667L17.5736 12.6667C17.4301 12.6667 17.3027 12.7586 17.2573 12.8947L16.7426 14.4388C16.6973 14.5749 16.5699 14.6667 16.4264 14.6667L14.8727 14.6667C14.7464 14.6667 14.631 14.5954 14.5745 14.4825L14.2068 13.7471C14.1051 13.5436 13.8339 13.4996 13.673 13.6604L13.431 13.9025C13.3684 13.965 13.3333 14.0497 13.3333 14.1382L13.3333 14.3334C13.3333 14.5175 13.1841 14.6667 13 14.6667L12.0787 14.6667C12.0269 14.6667 11.9759 14.6788 11.9296 14.7019L10.737 15.2982C10.6908 15.3214 10.6397 15.3334 10.588 15.3334L9.57358 15.3334C9.4301 15.3334 9.30272 15.4252 9.25735 15.5613L8.68376 17.2821C8.67243 17.3161 8.66666 17.3517 8.66666 17.3875L8.66666 18.3334C8.66666 18.5175 8.51742 18.6667 8.33332 18.6667L6.99999 18.6667C6.8159 18.6667 6.66666 18.816 6.66666 19.0001L6.66666 21.1274C6.66666 21.2537 6.73799 21.3691 6.85092 21.4255L7.85092 21.9255C7.94476 21.9725 8.05522 21.9725 8.14906 21.9255L9.20983 21.3952C9.2889 21.3556 9.34903 21.2863 9.37699 21.2024L9.95633 19.4644C9.98428 19.3805 10.0444 19.3112 10.1235 19.2717L11.2629 18.7019C11.3092 18.6788 11.3603 18.6667 11.412 18.6667L13.1273 18.6667C13.2536 18.6667 13.369 18.7381 13.4255 18.851L13.9648 19.9297C13.9879 19.976 14 20.027 14 20.0788L14 21.1953C14 21.2837 14.0351 21.3685 14.0976 21.431L14.431 21.7644C14.5611 21.8946 14.7722 21.8946 14.9024 21.7644L15.1999 21.4669C15.2827 21.3841 15.3159 21.2639 15.2875 21.1503L14.7701 19.0806C14.7176 18.8704 14.8766 18.6667 15.0933 18.6667C15.2366 18.6667 15.3639 18.7585 15.4092 18.8945L15.9751 20.5921C15.9915 20.6412 16.019 20.6858 16.0556 20.7224ZM8.66666 13.3334C9.03485 13.3334 9.33332 13.0349 9.33332 12.6667C9.33332 12.2986 9.03485 12.0001 8.66666 12.0001C8.29847 12.0001 7.99999 12.2986 7.99999 12.6667C7.99999 13.0349 8.29847 13.3334 8.66666 13.3334ZM11.3333 21.3334C11.7015 21.3334 12 21.0349 12 20.6667C12 20.2986 11.7015 20.0001 11.3333 20.0001C10.9651 20.0001 10.6667 20.2986 10.6667 20.6667C10.6667 21.0349 10.9651 21.3334 11.3333 21.3334Z"/><path d="M16.0556 20.7224L17.0976 21.7644C17.2278 21.8946 17.4389 21.8946 17.569 21.7644L18.6284 20.705C18.6537 20.6797 18.6748 20.6504 18.6908 20.6184L19.2716 19.4569C19.3111 19.3778 19.3804 19.3177 19.4643 19.2898L21.1054 18.7427C21.2415 18.6974 21.3333 18.57 21.3333 18.4265L21.3333 16.7677C21.3333 16.7019 21.3528 16.6375 21.3893 16.5828L22.4572 14.9809C22.5684 14.8141 22.5083 14.5875 22.3289 14.4979L21.3333 14.0001L19.5452 12.808C19.4201 12.7246 19.3663 12.5678 19.4138 12.4252L19.9348 10.8622C19.9748 10.7424 19.9436 10.6104 19.8543 10.5211L19.431 10.0977C19.3684 10.0352 19.3333 9.95042 19.3333 9.86201L19.3333 8.07877C19.3333 8.02702 19.3213 7.97598 19.2981 7.9297L18.7588 6.85101C18.7023 6.73808 18.5869 6.66675 18.4606 6.66675L17.3874 6.66675C17.3516 6.66675 17.316 6.67252 17.282 6.68385L15.408 7.30853C15.3589 7.3249 15.3143 7.35246 15.2777 7.38906L13.3333 9.33341L12.0976 10.5691C12.0351 10.6316 12 10.7164 12 10.8048L12 11.862C12 11.9504 12.0351 12.0352 12.0976 12.0977L12.4968 12.4969C12.5982 12.5983 12.7532 12.6235 12.8815 12.5593L13.5252 12.2375C13.7434 12.1284 14 12.287 14 12.5309C14 12.6179 14.0346 12.7013 14.0961 12.7628L14.569 13.2358C14.6315 13.2983 14.7163 13.3334 14.8047 13.3334L15.0931 13.3334C15.2365 13.3334 15.3639 13.2416 15.4093 13.1055L15.9829 11.3847C15.9942 11.3507 16 11.3151 16 11.2793L16 10.1382C16 10.0497 16.0351 9.96496 16.0976 9.90245L17.0976 8.90245C17.2278 8.77228 17.4389 8.77228 17.569 8.90245L17.8301 9.16353C17.9316 9.26498 17.9567 9.41997 17.8925 9.5483L17.3685 10.5964C17.3454 10.6427 17.3333 10.6937 17.3333 10.7454L17.3333 11.6667C17.3333 11.8508 17.4826 12.0001 17.6667 12.0001L18.3333 12.0001C18.5174 12.0001 18.6667 12.1493 18.6667 12.3334C18.6667 12.5175 18.5174 12.6667 18.3333 12.6667L17.5736 12.6667C17.4301 12.6667 17.3027 12.7586 17.2573 12.8947L16.7426 14.4388C16.6973 14.5749 16.5699 14.6667 16.4264 14.6667L14.8727 14.6667C14.7464 14.6667 14.631 14.5954 14.5745 14.4825L14.2068 13.7471C14.1051 13.5436 13.8339 13.4996 13.673 13.6604L13.431 13.9025C13.3684 13.965 13.3333 14.0497 13.3333 14.1382L13.3333 14.3334C13.3333 14.5175 13.1841 14.6667 13 14.6667L12.0787 14.6667C12.0269 14.6667 11.9759 14.6788 11.9296 14.7019L10.737 15.2982C10.6908 15.3214 10.6397 15.3334 10.588 15.3334L9.57358 15.3334C9.4301 15.3334 9.30272 15.4252 9.25735 15.5613L8.68376 17.2821C8.67243 17.3161 8.66666 17.3517 8.66666 17.3875L8.66666 18.3334C8.66666 18.5175 8.51742 18.6667 8.33332 18.6667L6.99999 18.6667C6.8159 18.6667 6.66666 18.816 6.66666 19.0001L6.66666 21.1274C6.66666 21.2537 6.73799 21.3691 6.85092 21.4255L7.85092 21.9255C7.94476 21.9725 8.05522 21.9725 8.14906 21.9255L9.20983 21.3952C9.2889 21.3556 9.34903 21.2863 9.37699 21.2024L9.95633 19.4644C9.98428 19.3805 10.0444 19.3112 10.1235 19.2717L11.2629 18.7019C11.3092 18.6788 11.3603 18.6667 11.412 18.6667L13.1273 18.6667C13.2536 18.6667 13.369 18.7381 13.4255 18.851L13.9648 19.9297C13.9879 19.976 14 20.027 14 20.0788L14 21.1953C14 21.2837 14.0351 21.3685 14.0976 21.431L14.431 21.7644C14.5611 21.8946 14.7722 21.8946 14.9024 21.7644L15.1999 21.4669C15.2827 21.3841 15.3159 21.2639 15.2875 21.1503L14.7701 19.0806C14.7176 18.8704 14.8766 18.6667 15.0933 18.6667C15.2366 18.6667 15.3639 18.7585 15.4092 18.8945L15.9751 20.5921C15.9915 20.6412 16.019 20.6858 16.0556 20.7224ZM8.66666 13.3334C9.03485 13.3334 9.33332 13.0349 9.33332 12.6667C9.33332 12.2986 9.03485 12.0001 8.66666 12.0001C8.29847 12.0001 7.99999 12.2986 7.99999 12.6667C7.99999 13.0349 8.29847 13.3334 8.66666 13.3334ZM11.3333 21.3334C11.7015 21.3334 12 21.0349 12 20.6667C12 20.2986 11.7015 20.0001 11.3333 20.0001C10.9651 20.0001 10.6667 20.2986 10.6667 20.6667C10.6667 21.0349 10.9651 21.3334 11.3333 21.3334Z"/><path fill="#FFF" fill-rule="evenodd" d="M9.96482 12.7371C9.98796 12.6908 10 12.6398 10 12.5881L10 12.0788C10 12.027 9.98796 11.976 9.96482 11.9297L9.57455 11.1492C9.46373 10.9275 9.62489 10.6667 9.87269 10.6667L10.3333 10.6667C10.5174 10.6667 10.6667 10.816 10.6667 11.0001L10.6667 12.5881C10.6667 12.6398 10.6787 12.6908 10.7019 12.7371L11.0921 13.5177C11.203 13.7393 11.0418 14.0001 10.794 14.0001L9.87269 14.0001C9.62489 14.0001 9.46373 13.7393 9.57455 13.5177L9.96482 12.7371Z"/><path d="M10 12.0788C10 12.027 9.98796 11.976 9.96482 11.9297L9.57455 11.1492C9.46373 10.9275 9.62489 10.6667 9.87269 10.6667L10.3333 10.6667C10.5174 10.6667 10.6667 10.816 10.6667 11.0001L10.6667 12.5881C10.6667 12.6398 10.6787 12.6908 10.7019 12.7371L11.0921 13.5177C11.203 13.7393 11.0418 14.0001 10.794 14.0001L9.87269 14.0001C9.62489 14.0001 9.46373 13.7393 9.57455 13.5177L9.96482 12.7371C9.98796 12.6908 10 12.6398 10 12.5881L10 12.0788Z"/></g></svg>

<svg xmlns="http://www.w3.org/2000/svg" fill="none" viewBox="0 0 28 28" focusable="false"><path fill="none" d="M0 0h28v28H0z"/><rect width="28" height="20" y="4" fill="#FFF" rx="3"/><rect width="28" height="20" y="4" rx="3"/><mask id="CEU_svg__a" width="28" height="20" x="0" y="4" mask-type="alpha" maskUnits="userSpaceOnUse"><rect width="28" height="20" y="4" fill="#FFF" rx="3"/><rect width="28" height="20" y="4" stroke="#979797" stroke-opacity="0" stroke-width="0" rx="3"/></mask><g mask="url(#CEU_svg__a)"><path fill="#19BFBF" d="M0 4h28v20H0z"/><path d="M0 4h28v20H0z"/></g><g mask="url(#CEU_svg__a)"><mask id="CEU_svg__b" fill="#fff"><path fill-rule="evenodd" d="m16.056 20.722 1.042 1.042c.13.13.34.13.471 0l1.06-1.059a.3.3 0 0 0 .062-.087l.58-1.161c.04-.08.11-.14.193-.167l1.641-.547a.33.33 0 0 0 .228-.316v-1.66c0-.065.02-.13.056-.184l1.068-1.602a.333.333 0 0 0-.128-.483L21.333 14l-1.788-1.192a.33.33 0 0 1-.131-.383l.52-1.563a.33.33 0 0 0-.08-.34l-.423-.424a.33.33 0 0 1-.098-.236V8.079a.33.33 0 0 0-.035-.15l-.54-1.078a.33.33 0 0 0-.297-.184h-1.074a.3.3 0 0 0-.105.017l-1.874.625a.33.33 0 0 0-.13.08l-1.945 1.944-1.235 1.236a.33.33 0 0 0-.098.236v1.057c0 .088.035.173.098.236l.399.399a.33.33 0 0 0 .385.062l.643-.321c.218-.11.475.049.475.293 0 .087.034.17.096.232l.473.473a.33.33 0 0 0 .236.097h.288c.143 0 .27-.091.316-.228l.574-1.72a.3.3 0 0 0 .017-.106v-1.14c0-.09.035-.174.098-.237l1-1c.13-.13.34-.13.471 0l.261.262a.33.33 0 0 1 .063.384l-.524 1.048a.33.33 0 0 0-.036.15v.92c0 .185.15.334.334.334h.666a.333.333 0 1 1 0 .667h-.76a.33.33 0 0 0-.316.228l-.514 1.544a.33.33 0 0 1-.317.228h-1.553a.33.33 0 0 1-.298-.184l-.368-.736a.333.333 0 0 0-.534-.087l-.242.242a.33.33 0 0 0-.098.236v.195c0 .184-.149.334-.333.334h-.921a.33.33 0 0 0-.15.035l-1.192.596a.3.3 0 0 1-.149.035H9.574a.33.33 0 0 0-.317.228l-.573 1.721a.3.3 0 0 0-.017.105v.946c0 .184-.15.334-.334.334H7a.333.333 0 0 0-.333.333v2.127c0 .127.071.242.184.299l1 .5a.33.33 0 0 0 .298 0l1.06-.53c.08-.04.14-.11.168-.194l.58-1.738a.33.33 0 0 1 .166-.192l1.14-.57a.33.33 0 0 1 .149-.035h1.715c.127 0 .242.071.298.184l.54 1.079a.33.33 0 0 1 .035.149v1.116c0 .089.035.174.098.236l.333.333c.13.13.341.13.471 0l.298-.297a.33.33 0 0 0 .088-.317l-.518-2.07a.333.333 0 0 1 .64-.185l.565 1.697q.026.076.08.13m-6.723-8.055a.667.667 0 1 1-1.333 0 .667.667 0 0 1 1.333 0m2 8.666a.667.667 0 1 0 0-1.333.667.667 0 0 0 0 1.333" clip-rule="evenodd"/></mask><path fill="#FFF" fill-rule="evenodd" d="m16.056 20.722 1.042 1.042c.13.13.34.13.471 0l1.06-1.059a.3.3 0 0 0 .062-.087l.58-1.161c.04-.08.11-.14.193-.167l1.641-.547a.33.33 0 0 0 .228-.316v-1.66c0-.065.02-.13.056-.184l1.068-1.602a.333.333 0 0 0-.128-.483L21.333 14l-1.788-1.192a.33.33 0 0 1-.131-.383l.52-1.563a.33.33 0 0 0-.08-.34l-.423-.424a.33.33 0 0 1-.098-.236V8.079a.33.33 0 0 0-.035-.15l-.54-1.078a.33.33 0 0 0-.297-.184h-1.074a.3.3 0 0 0-.105.017l-1.874.625a.33.33 0 0 0-.13.08l-1.945 1.944-1.235 1.236a.33.33 0 0 0-.098.236v1.057c0 .088.035.173.098.236l.399.399a.33.33 0 0 0 .385.062l.643-.321c.218-.11.475.049.475.293 0 .087.034.17.096.232l.473.473a.33.33 0 0 0 .236.097h.288c.143 0 .27-.091.316-.228l.574-1.72a.3.3 0 0 0 .017-.106v-1.14c0-.09.035-.174.098-.237l1-1c.13-.13.34-.13.471 0l.261.262a.33.33 0 0 1 .063.384l-.524 1.048a.33.33 0 0 0-.036.15v.92c0 .185.15.334.334.334h.666a.333.333 0 1 1 0 .667h-.76a.33.33 0 0 0-.316.228l-.514 1.544a.33.33 0 0 1-.317.228h-1.553a.33.33 0 0 1-.298-.184l-.368-.736a.333.333 0 0 0-.534-.087l-.242.242a.33.33 0 0 0-.098.236v.195c0 .184-.149.334-.333.334h-.921a.33.33 0 0 0-.15.035l-1.192.596a.3.3 0 0 1-.149.035H9.574a.33.33 0 0 0-.317.228l-.573 1.721a.3.3 0 0 0-.017.105v.946c0 .184-.15.334-.334.334H7a.333.333 0 0 0-.333.333v2.127c0 .127.071.242.184.299l1 .5a.33.33 0 0 0 .298 0l1.06-.53c.08-.04.14-.11.168-.194l.58-1.738a.33.33 0 0 1 .166-.192l1.14-.57a.33.33 0 0 1 .149-.035h1.715c.127 0 .242.071.298.184l.54 1.079a.33.33 0 0 1 .035.149v1.116c0 .089.035.174.098.236l.333.333c.13.13.341.13.471 0l.298-.297a.33.33 0 0 0 .088-.317l-.518-2.07a.333.333 0 0 1 .64-.185l.565 1.697q.026.076.08.13m-6.723-8.055a.667.667 0 1 1-1.333 0 .667.667 0 0 1 1.333 0m2 8.666a.667.667 0 1 0 0-1.333.667.667 0 0 0 0 1.333" clip-rule="evenodd" mask="url(#CEU_svg__b)"/></g><g mask="url(#CEU_svg__a)"><path fill="#FFF" fill-rule="evenodd" d="M9.96 12.73c.02-.04.04-.1.04-.15v-.51c0-.05-.02-.1-.04-.15l-.39-.78c-.11-.22.05-.48.3-.48h.46c.18 0 .33.15.33.34v1.58c0 .05.01.11.04.15l.39.78a.34.34 0 0 1-.3.49h-.92a.34.34 0 0 1-.3-.49z"/><path d="M10 12.07c0-.05-.02-.1-.04-.15l-.39-.78c-.11-.22.05-.48.3-.48h.46c.18 0 .33.15.33.34v1.58c0 .05.01.11.04.15l.39.78a.34.34 0 0 1-.3.49h-.92a.34.34 0 0 1-.3-.49l.39-.78c.02-.04.04-.1.04-.15z"/></g></svg>
